!!!!SEGMENT: Distler_Jahrkreis_09_Ehre-sei-Gott-in-der-Hoehe.krn
!!!COM: Distler, Hugo
!!!CDT: 1908-1942
!!!OPR@@DE: Der Jahrkreis
!!!OPR@EN: The Year Cycle
!!!OTL@@DE: Ehre sei Gott in der Hoehe
!!!OTL@EN: Glory be to God in the highest
!!!OPS: 5
!!!ONM: 9
**kern	**text	**kern	**text	**kern	**text
*part3	*part3	*part2	*part2	*part1	*part1
*staff3	*staff3	*staff2	*staff2	*staff1	*staff1
*Ialto	*	*Isoprn	*	*Isoprn	*
*clefG2	*	*clefG2	*	*clefG2	*
*k[]	*	*k[]	*	*k[]	*
*MM120	*	*MM120	*	*MM120	*
*M6/4	*	*M6/4	*	*M6/4	*
=1	=1	=1	=1	=1	=1
1.r	.	1.r	.	4r	.
.	.	.	.	(2g	Eh-
.	.	.	.	4a	.
.	.	.	.	4cc	.
.	.	.	.	4dd)	.
=2	=2	=2	=2	=2	=2
1.r	.	1.r	.	4dd	re
.	.	.	.	4dd	sei
.	.	.	.	2dd	Gott
.	.	.	.	4ee	in
.	.	.	.	4cc	der
=3	=3	=3	=3	=3	=3
*M4/4	*	*M4/4	*	*M4/4	*
2r	.	4r	.	1dd	Hoe-
.	.	(2g	Eh-	.	.
4r	.	.	.	.	.
([4d	Eh-	4a	.	.	.
=4	=4	=4	=4	=4	=4
4d]	.	4.cc	.	2.dd,	he,
4e	.	.	.	.	.
.	.	8b)	.	.	.
4.f	.	4a	re	.	.
.	.	4g	sei	4r	.
8e)	.	.	.	.	.
!!LO:LB:g=original
=5	=5	=5	=5	=5	=5
4d	re	2.a,	Gott,	4r	.
4c	sei	.	.	(2cc	Eh-
[2e	Gott,	.	.	.	.
.	.	([4a	Eh-	4dd	.
=6	=6	=6	=6	=6	=6
4e],	.	4a]	.	4.ff	.
(2d	Eh-	8bL	.	.	.
.	.	8ccJ	.	8ee)	.
.	.	4.dd	.	4dd	re
4e	.	.	.	4cc	sei
.	.	8cc)	.	.	.
=7	=7	=7	=7	=7	=7
4.g	.	4b,	re,	4dd,	Gott,
.	.	(4.ee	Eh-	(2b	Eh-
8f#)	.	.	.	.	.
4e,	re,	.	.	.	.
.	.	8dd#)	.	.	.
([4e	Eh-	[4cc#	re	4cc#	.
=8	=8	=8	=8	=8	=8
4e]	.	4cc#]	.	4.ee	.
4f#	.	4b	sei	.	.
.	.	.	.	8dd#)	.
4.a	.	[2cc#	Gott	4cc#	re
.	.	.	.	4b	sei
8g#)	.	.	.	.	.
!!LO:LB:g=original
=9	=9	=9	=9	=9	=9
4f#	re,	2cc#]	.	2cc#	Gott
4e	sei	.	.	.	.
2f#	Gott	4b	in	4cc#	in
.	.	4a	der	4cc#	der
=10	=10	=10	=10	=10	=10
*M6/4	*	*M6/4	*	*M6/4	*
*	*	*	*	*^	*
4d	in	2f#	Hoe-	2dd	2dd	Hoe-
4d	der	.	.	.	.	.
1A	Hoe-	2a,	he	2ee,	2cc#	he
.	.	4cn	und	4e	4e	und
.	.	4c	auf	4e	4e	auf
*	*	*	*	*v	*v	*
=11	=11	=11	=11	=11	=11
*M8/4	*	*M8/4	*	*M8/4	*
[1A	he	(2c	Er-	(2fn	Er-
.	.	2.B,	.	2.e,	.
1A_	.	.	.	.	.
.	.	4e	.	4e	.
.	.	4d	.	4f	.
.	.	4c	.	4g	.
=12	=12	=12	=12	=12	=12
1A_	.	2e	.	2a	.
.	.	4d,	.	4f,	.
.	.	4.e	.	4.g	.
1A_	.	.	.	.	.
.	.	8d	.	8f	.
.	.	4c)	.	4e	.
.	.	2d	den	4f)	.
.	.	.	.	4d	den
!!LO:LB:g=original
=13	=13	=13	=13	=13	=13
*M4/4	*	*M4/4	*	*M4/4	*
1A],	.	2c#,	Fried'	1e,	Fried'
.	.	4f#	und	.	.
.	.	4e	den	.	.
=14	=14	=14	=14	=14	=14
1r	.	(2g	Men-	4b	und
.	.	.	.	4g	den
.	.	8f#L	.	(4dd	Men-
.	.	8g	.	.	.
.	.	8a	.	[4b	.
.	.	8f#J	.	.	.
=15	=15	=15	=15	=15	=15
1r	.	4b)	.	8bL]	.
.	.	.	.	8cc	.
.	.	8a	schen	8dd	.
.	.	8a	ein	8bJ	.
.	.	4g	Wohl-	4ee)	.
.	.	4f#	ge-	8dd	schen
.	.	.	.	8dd	ein
=16	=16	=16	=16	=16	=16
2r	.	2e	fal-	4cc	Wohl-
.	.	.	.	4cc	ge-
4B	und	2d,	len,	2b	fal-
4G	den	.	.	.	.
!!LO:LB:g=original
=17	=17	=17	=17	=17	=17
2d	Men-	4f#	und	2a	len,
.	.	4d	den	.	.
4d,	schen,	(4a	Men-	2r	.
4G	den	[4g	.	.	.
=18	=18	=18	=18	=18	=18
2d	Men-	8gL]	.	4b	und
.	.	8a	.	.	.
.	.	8b	.	4g	den
.	.	8gJ	.	.	.
4d,	schen,	4cc)	.	(4dd	Men-
4G	den	8b	schen	[4b	.
.	.	8b	ein	.	.
=19	=19	=19	=19	=19	=19
(4d	Men-	(2a	Wohl-	8bL]	.
.	.	.	.	8cc	.
4.B	.	.	.	8dd	.
.	.	.	.	8bJ	.
.	.	[2g	.	4ee)	.
8cL	.	.	.	.	.
8d	.	.	.	8dd	schen
8BJ	.	.	.	8dd	ein
!!LO:LB:g=original
=20	=20	=20	=20	=20	=20
4e)	.	4g])	.	4cc	Wohl-
8e	schen	(8f#L	ge-	4b	ge-
8e	ein	8eJ)	.	.	.
*^	*	*	*	*	*
4c	4c	Wohl-	2f#	fal-	2a	fal-
4c	4c	ge-	.	.	.	.
=21	=21	=21	=21	=21	=21	=21
1d	1G	fal-	4g,	len,	4b,	len,
.	.	.	4g	den	4g	den
.	.	.	4e	Men-	(8bL	Men-
.	.	.	.	.	8cc	.
.	.	.	[4g	schen	8dd	.
.	.	.	.	.	8bJ	.
=22	=22	=22	=22	=22	=22	=22
*M6/4	*M6/4	*	*M6/4	*	*M6/4	*
1.d	1.G	len!	8g]	.	4ee)	.
.	.	.	8g	ein	.	.
.	.	.	4a	Wohl-	8dd	schen
.	.	.	.	.	8cc	ein
.	.	.	4a	ge-	8dd	Wohl-
.	.	.	.	.	8dd	ge-
.	.	.	2b	fal-	2dd	fal-
.	.	.	4b	len!	4dd	len!
*v	*v	*	*	*	*	*
==	==	==	==	==	==
*-	*-	*-	*-	*-	*-
!!!YOR: Bärenreiter-Ausgabe 676
!!!YOY: 1933
!!!EFL: 9/52
!!!URL-pdf: https://imslp.eu/files/imglnks/euimg/7/7d/IMSLP834545-PMLP518834-5-jahrkreis-EA--original-paper-600dpi.pdf#page=18 First edition, Kassel: Bärenreiter, 1933. Plate BA 676.
!!!URL-imslp: https://imslp.org/wiki/Der_Jahrkreis,_Op.5_(Distler,_Hugo)#IMSLP834545
!!!system-decoration: [(s1,s2,s3)]
!!!ENC: Lucas Hofmann
!!!END: 2023/10/26
!!!title: @{OPR@@DE}, Op. @{OPS}, Nr. @{ONM}. @{OTL@@DE}
